X: 18921
T: Independent, The
R: jig
M: 6/8
K: Dmajor
DCD EFD|FAd BAF|BAF dAF|EFE EDB,|
DB,A, DFA|~B3 BAF|BAF dAF|1 EDC D2A,:|2 EDC DFA||
~d3 efd|B/c/dB BAF|BAF dAF|EFE EFA|
~d3 efd|B/c/dB BAF|BAF dAF|EDC DFA|
~d3 efd|B/c/dB BAF|BAF dAF|EFE EDB,|
DB,A, DFA|~B3 BAF|BAF dAF|EDC D2A||
~d3 efd|afd e/f/ge|edB AFA|BAF EFE||

